X: 379
T: Bright Love of My Heart
M:C
L:1/8
B:O'Neill's 379
N:"Moderate."
N:"collected by J. O'Neill"
Z:Transcribed by Chris Falt, cfalt@trytel.com
K:D
(F>G)|A>B (A/2G/2F/2D/2) Adcd|FGAB =c2(d/2^c/2B/2c/2)|A>BAG FDGF|D2G2 G2F>G|
A>B (A/2G/2F/2D/2) Adcd|FGAB =c2(d/2^c/2B/2c/2)|A>BAG FDGF|D2D2 D2||
((3ABc)|d2d>e f2ed|e2(d/2c/2A/2G/2) A2((3ABc)|d2dd e2(d/2c/2A/2B/2)|=c2d>d d3A|
d2d2 de=cA|AGFD cdcA|A>BAG FDGF|D2D2 D2||


